X: 9
T: Both Sides The Tweed
R: waltz
M: 3/4
L: 1/8
K: Amin
AB|"Am"c3 BA2|"C"c2 d2 e2|"F"a6|-a4 a2|"C"g3 ed2|"C"c2 d2 e2| "G"G6|-G4 AB|
"Am"c3 BA2|"C"c2 d2 e2|"F"a6|-a4 a2|"C"g2 e2 c2|"G"d3 cB2|"Am"A6|-A4 eg|
"F"a3 aa2|"F"a2 g2 e2|"G"g6|-g4 ag|"C"e2 d2 c2|"Am"c3 de2|"G"G6|-G4 AB|
"Am"c2 B2 A2|"C" c2 d2 e2 |"F"a6|-a4 ba|"C"g2 e2 c2|"G"d3 cB2|"Am"A6|-A4|] 

